X: 4
T: Inventio 4
C: Johann Sebastian Bach
%%abc-version 2.0
%%abcx-abcm2ps-target-version 5.9.1 (29 Sep 2008)
%%abc-creator hum2abc beta
%%abcx-conversion-date 2021/01/28 10:10:55
%%abc-copyright Copyright 1994, David Huron
%%abc-edited-by David Huron
%%abcx-initial-encoding-date 1986 November
%%gracespace 0 6 6
%%humdrum-veritas 3083740996
%%humdrum-veritas-data 1535302717
%%linebreak <none>
%%barnumbers 0
L: 1/16
M: 3/8
N: Derived from inven04.krn
Q: 3/8=72
%%staves {1 2}
V: 1 clef=treble
V: 2 clef=bass
K: F
[V:1] DEFGAB | 
[V:2] z6 | 
[V:1] ^CBAGFE | 
[V:2] z6 | 
[V:1] F2A2d2 | 
[V:2] D,E,F,G,A,B, | 
[V:1] G2^c2e2 | 
[V:2] ^C,B,A,G,F,E, | 
[V:1] defgab | 
[V:2] F,2A,2D2 | 
[V:1] ^cbagfe | 
[V:2] E,2G,2^C2 | 
[V:1] fdefga | 
[V:2] D,2D2F,2 | 
[V:1] Bagfed | 
[V:2] G,2A,2B,2 | 
[V:1] ecdefg | 
[V:2] C,2C2E,2 | 
[V:1] Agfedc | 
[V:2] F,2G,2A,2 | 
[V:1] defdef | 
[V:2] B,G,A,B,CD | 
[V:1] G2 z2 z2 | 
[V:2] E,DCB,A,G, | 
[V:1] cdecde | 
[V:2] A,F,G,A,B,C | 
[V:1] F2 z2 B2- | 
[V:2] D,CB,A,G,F, | 
[V:1] B2A2G2 | 
[V:2] E,C,D,E,F,G, | 
[V:1] cBAGFE | 
[V:2] A,,G,F,E,D,C, | 
[V:1] FG2<G2F | 
[V:2] D,B,,C,2C,,2 | 
[V:1] F2c2c2 | 
[V:2] F,,G,,A,,B,,C,D, | 
[V:1] !mordent!c6- | 
[V:2] E,,D,C,B,,A,,G,, | 
[V:1] c6- | 
[V:2] A,,B,,C,D,E,F, | 
[V:1] c6- | 
[V:2] G,,F,E,D,C,B,, | 
[V:1] cBAGFE | 
[V:2] A,,B,,C,A,,B,,C, | 
[V:1] cDE^FGA | 
[V:2] ^F,,2 z2 z2 | 
[V:1] BAGFED | 
[V:2] G,,A,,B,,G,,A,,B,, | 
[V:1] BCDEFG | 
[V:2] E,,2 z2 z2 | 
[V:1] A=Bcdef | 
[V:2] F,,2F,2D,2 | 
[V:1] ^Gfedc=B | 
[V:2] =B,,2^G,,2E,,2 | 
[V:1] c=BdcBA | 
[V:2] A,,^G,,A,,=B,,C,D, | 
[V:1] ^GAG^FED | 
[V:2] !mordent!E,6- | 
[V:1] CDE^F^GA | 
[V:2] E,6- | 
[V:1] Dc=BA^G^F | 
[V:2] E,6- | 
[V:1] E^F^GA=Bc | 
[V:2] E,6- | 
[V:1] ^Fedc=BA | 
[V:2] E,6- | 
[V:1] ^GA=Bcde | 
[V:2] E,2E2D2 | 
[V:1] Afedc=B | 
[V:2] C2=B,2A,2 | 
[V:1] a^g^fea2- | 
[V:2] D2E2F2 | 
[V:1] ad2<=B2A | 
[V:2] D2E2E,2 | 
[V:1] A2>A2Bc | 
[V:2] A,A,,B,,C,D,_E, | 
[V:1] D2^F2A2 | 
[V:2] ^F,,_E,D,C,B,,A,, | 
[V:1] BGABcd | 
[V:2] G,,2>G,,2A,,B,, | 
[V:1] EdcBAG | 
[V:2] C,,2G,,2C,2 | 
[V:1] A2fef2 | 
[V:2] F,G,A,=B,^CD | 
[V:1] G2e2 z2 | 
[V:2] E,D^C=B,A,G, | 
[V:1] defgab | 
[V:2] F,2A,2D2 | 
[V:1] ^cbagfe | 
[V:2] E,2G,2^C2 | 
[V:1] f2d2G2- | 
[V:2] D,E,F,G,A,B, | 
[V:1] Gd^ceAc | 
[V:2] ^C,B,A,G,F,E, | 
[V:1] d=B2<^c2d | 
[V:2] F,G,A,2A,,2 | 
[V:1] d=cBAGF | 
[V:2] B,,2>C,2B,,A,, | 
[V:1] B^CDEFG | 
[V:2] G,,B,A,G,F,E, | 
[V:1] AdF2ED | 
[V:2] F,G,A,2A,,2 | 
[V:1] !fermata!D6 |]  
[V:2] !fermata!D,,6 |]  


